X:549
T: MAEDELE RUCK AN MEINE GRUENE SEITE
N: E0525
O: Europa, Mitteleuropa, Deutschland, Schwaben
R: Liebes - Lied
M: 4/4
L: 1/16
K: F
FFA2 | c2c2c2c2=B2c2d2c2 | c2f2A2
A2G2A2 | c3BB2B2A2B2 | d4c4
c2c2 | B2B2G4d2d2 | c2c2A4
c2c2 | B2B2G4d2d2 | c2c2A4
FFA2 | c2c2c2c2=B2c2d2c2 | c2f2A2
A2G2A2 | c3BB2A2B2G2 | G4F4

@@@ Tune index: 4199
